symbols/web/markunread_mailbox/materialsymbolsoutlined/markunread_mailbox_wght700grad200_48px.svg

<svg xmlns="http://www.w3.org/2000/svg" height="48" width="48"><path d="M12.1 27.2v-7.7H7.5v21.05h33V19.5H17.95v-4.6H40.5q1.85 0 3.225 1.35T45.1 19.5v21.05q0 1.85-1.35 3.2T40.5 45.1h-33q-1.85 0-3.2-1.35t-1.35-3.2V19.5q0-1.9 1.35-3.25t3.2-1.35h4.6V1.85h15.3v8.1H14.95V27.2Zm-4.6-7.7v8.9-8.9 21.05V19.5Z"/></svg>

<svg xmlns="http://www.w3.org/2000/svg" height="48" width="48"><path d="M12.1 27.2V19.5H7.5Q7.5 19.5 7.5 19.5Q7.5 19.5 7.5 19.5V40.55Q7.5 40.55 7.5 40.55Q7.5 40.55 7.5 40.55H40.5Q40.5 40.55 40.5 40.55Q40.5 40.55 40.5 40.55V19.5Q40.5 19.5 40.5 19.5Q40.5 19.5 40.5 19.5H17.95V14.9H40.5Q42.35 14.9 43.725 16.25Q45.1 17.6 45.1 19.5V40.55Q45.1 42.4 43.75 43.75Q42.4 45.1 40.5 45.1H7.5Q5.65 45.1 4.3 43.75Q2.95 42.4 2.95 40.55V19.5Q2.95 17.6 4.3 16.25Q5.65 14.9 7.5 14.9H12.1V1.85H27.4V9.95H14.95V27.2ZM7.5 19.5V28.4V19.5Q7.5 19.5 7.5 19.5Q7.5 19.5 7.5 19.5V40.55Q7.5 40.55 7.5 40.55Q7.5 40.55 7.5 40.55Q7.5 40.55 7.5 40.55Q7.5 40.55 7.5 40.55V19.5Q7.5 19.5 7.5 19.5Q7.5 19.5 7.5 19.5Z"/></svg>
